X:1
T:Table Mountain, 87.87 D
T:Table Mountain, 87.87 D
T:Andrew Linnaeus Byers, 1893
T:Public Domain Courtesy of the Cyber Hymnal™
C:Andrew Linnaeus Byers, 1893
Z:Public Domain
Z:Courtesy of the Cyber Hymnal™
%%score 1 ( 2 3 )
L:1/8
Q:1/4=88
M:3/4
K:Ab
V:1 treble 
V:2 bass 
V:3 bass 
V:1
 [CE][CA] | [Ec]3 [Ec] [Ec][EA] | [FB] [FA]3 [FA][DF] | [CE]3 [CE] [EA][Ec] | [EB]4 [CA][DB] | %5
 [Ec]3 [Ec] [Ec][EA] | [FB] [FA]3 [FA][DF] | [CE]3 [CA] [Ec][DB] | [CA]4 [Ec][Ed] | %9
 [Ae]3 [Ac] [Af][Ae] | [Fe] [Fd]3 [FA][_FB] | [Ec]3 [Ec] [EB][=DA] | [EB]4 [Ee][Ed] | %13
 [Ec]3 [Ec] [Ec][EA] | [FB] [FA]3 [FA][DF] | [CE]3 [CA] [Ec][DB] | [CA]4 |] %17
V:2
 [A,,A,][A,,A,] | [A,,A,]3 [A,,A,] [A,,A,][C,A,] | [D,A,] [D,D]3 [D,D][D,A,] | %3
 [A,,A,]3 [A,,A,] [C,A,][A,,A,] | [E,G,]4 [A,,A,][A,,A,] | [A,,A,]3 [A,,A,] [A,,A,][C,A,] | %6
 [D,A,] [D,D]3 [D,D][D,A,] | [E,A,]3 [E,A,] [E,A,][E,G,] | [A,,A,]4 A,[A,B,] | %9
 [A,C]3 [A,E] [A,D][A,C] | [D,A,] [D,A,]3 [D,A,][D,A,] | A,3 A, [G,B,][F,B,] | %12
 [E,G,]4 [C,A,][B,,G,] | [A,,A,]3 [A,,A,] [A,,A,][C,A,] | [D,A,] [D,D]3 [D,D][D,A,] | %15
 [E,A,]3 [E,A,] [E,A,][E,G,] | [A,,A,]4 |] %17
V:3
 x2 | x6 | x6 | x6 | x6 | x6 | x6 | x6 | x4 A, x | x6 | x6 | A,3 A, x2 | x6 | x6 | x6 | x6 | x4 |] %17

